packages/kaspersky-hexa-ui-icons/src/iconsSVGs/48/Download2.svg

<svg xmlns="http://www.w3.org/2000/svg" width="48" height="48" fill="none" viewBox="0 0 48 48"><path fill="currentColor" d="M24 4c.5523 0 1 .4477 1 1v26.5858l8.2929-8.2929c.3905-.3905 1.0237-.3905 1.4142 0 .3906.3905.3906 1.0237 0 1.4142L25.4142 34c-.781.781-2.0473.781-2.8284 0l-9.2929-9.2929c-.3905-.3905-.3905-1.0237 0-1.4142s1.0237-.3905 1.4142 0L23 31.5858V5c0-.5523.4477-1 1-1"/><path fill="currentColor" d="M6 31.5c0-.5523-.4477-1-1-1s-1 .4477-1 1V39c0 2.2091 1.7909 4 4 4h32c2.2091 0 4-1.7909 4-4v-7.5c0-.5523-.4477-1-1-1s-1 .4477-1 1V39c0 1.1046-.8954 2-2 2H8c-1.1046 0-2-.8954-2-2z"/></svg>

<svg width="48" height="48" viewBox="0 0 48 48" fill="none" xmlns="http://www.w3.org/2000/svg">
<path d="M24 4C24.5523 4 25 4.44772 25 5V31.5858L33.2929 23.2929C33.6834 22.9024 34.3166 22.9024 34.7071 23.2929C35.0977 23.6834 35.0977 24.3166 34.7071 24.7071L25.4142 34C24.6332 34.781 23.3669 34.781 22.5858 34L13.2929 24.7071C12.9024 24.3166 12.9024 23.6834 13.2929 23.2929C13.6834 22.9024 14.3166 22.9024 14.7071 23.2929L23 31.5858V5C23 4.44772 23.4477 4 24 4Z" fill="currentColor"/>
<path d="M6 31.5C6 30.9477 5.55228 30.5 5 30.5C4.44772 30.5 4 30.9477 4 31.5V39C4 41.2091 5.79086 43 8 43H40C42.2091 43 44 41.2091 44 39V31.5C44 30.9477 43.5523 30.5 43 30.5C42.4477 30.5 42 30.9477 42 31.5V39C42 40.1046 41.1046 41 40 41H8C6.89543 41 6 40.1046 6 39V31.5Z" fill="currentColor"/>
</svg>
